X:1
T:D minor Thomas Ravenscroft, 1621
T:Thomas Sternhold, 1547 86. 86. (C. M.)
T:Peterborough Old (Psalm 8) No copyright. Transcribed from Ravenscroft, The Whole Booke of Psalmes, 1621.
%%score [ 1 2 3 4 ]
L:1/8
M:12/4
K:F
V:1 treble nm="Cantus" snm="Tr."
V:2 treble nm="Medius" snm="M."
V:3 treble-8 nm="Tenor" snm="T."
V:4 bass nm="Bassus" snm="B."
V:1
 F4 A2 B2 G2 F2 B3 B A4 | z2 A2 B2 c2 d3 d ^c4 | A4 G2 G2 F2 D2 G3 G ^F4 | %3
w: 1.~O God our Lord how won- der- ful|Are Thy works eve- ry- where,|Whose fame sur- mounts in dig- ni- ty|
 z2 c2 c2 A2 B2 AG ^F16 |] %4
w: A- bove the hea- vens * clear.|
V:2
 A4 A2 d2 c2 A2 d3 d d4 | z2 f2 f2 e2 d2 g2 e4 | f4 e2 d2 c2 B2 d2 d2 d4 | z2 f2 e>d d4 ^c2 d16 |] %4
w: 2.~E'en by the mouths of suck- ing babes|Thou wilt con- found Thy foes;|For in these babes Thy might is seen,|Thy gra- ces they dis- close.|
V:3
 D4 F2 D2 E2 F2 G3 G ^F4 | z2 D2 D2 E2 F2 G2 A4 | c4 B2 B2 A2 G2 B3 B A4 | z2 A2 G2 F2 E2 E2 D16 |] %4
w: 3.~And when I see the hea- vens high,|The works of Thine own hands,|The sun, the moo, and all the stars,|In or- der as they stand.|
V:4
 D,4 D,2 B,,2 C,2 D,2 B,,2 G,,2 D,4 | z2 D,2 D,2 C,2 B,,2 B,,2 A,,4 | %2
 F,,4 G,,2 G,,2 A,,2 B,,2 G,,2 G,,2 D,4 | F,4 C,2 D,2 G,,2 A,,2 D,16 |] %4

